X:1
T:Title
%%score { ( 1 3 ) | 2 }
L:1/8
Q:1/4=100
M:4/4
K:E
V:1 treble nm="Grand Piano"
V:3 treble 
V:2 bass 
V:1
 E2 B,2 G2 EG | BB B>c B3 G | A2 G2 F3 E | D2 C2 B,3 B, | EEEF G3 [DF] | GGGA B4 | c2 F2 B2 EE | %7
w: William~J.~Kirkpatrick * * * *|||||||
 A>A A[B,FB] [B,EG]3 [A,B,F] | [G,B,E]2 [EAc]2 [EGB]3 [CEA] | [B,EG]2 [EAc]2 [EGB]3 [EGB] | %10
w: |||
 [EGB]2 [EG]2 [B,DA]2 [A,DF]2 | [G,B,E]6 z2 | [GB]6 z2 | [EGB]2 [Ge]2 [Ge]4 | [GB]6 z2 | %15
w: |||||
 [EGB]2 [B,EG]2 [DF]4 | [GB]6 z2 | %17
w: ||
 [EGB]2 [Be]2 e2 dc[Q:1/4=97][Q:1/4=94][Q:1/4=91][Q:1/4=88][Q:1/4=84][Q:1/4=81][Q:1/4=78] | %18
w: |
[M:19/16] B/-B/-B/-B/-B/-B-<B[EG][DA]-<[DA][DF]-<[DF] |[M:4/4] [B,E]6 z2 |] %20
w: ||
V:2
 E,2 B,,2 G,2 E,[E,B,E] | [E,G,E][E,G,E] [E,G,E]>[E,A,E] [E,G,E]3 G, | A,2 G,2 F,3 E, | %3
 D,2 C,2 B,,3 [B,,A,] | [E,G,B,][E,G,B,][E,G,B,][E,A,B,] [E,B,E]3 [B,,B,] | %5
 [E,B,E][E,B,E][E,B,E][F,B,E] [G,B,E]4 | [A,E]2 [A,CE]2 [G,B,E]2 [G,B,][G,B,] | %7
 [F,B,D]>[F,B,D] [F,B,D]D, E,3 E, | E,2 E,2 E,3 E, | E,2 E,2 E,3 G, | B,2 B,2 B,,2 B,,2 | E,6 z2 | %12
 E,2 E,2 E,>E, E,>E, | E,2 [E,B,]2 [E,B,]4 | [E,B,]2 E,2 E,>E, E,>E, | E,2 G,2 B,4 | %16
 E,2 E,2 E,>E, E,>E, | E,2[K:treble] [G,=D]2 [A,CA]2 [^A,E=G]2 | %18
[M:19/16] [B,EG]/-[B,EG]/-[B,EG]/-[B,EG]/-[B,EG]/-[B,EG]-<[B,EG][K:bass][B,,B,][B,,B,]-<[B,,B,][B,,A,]-<[B,,A,] | %19
[M:4/4] [E,G,]6 z2 |] %20
V:3
 x8 | x8 | x8 | x8 | x8 | x8 | x8 | x8 | x8 | x8 | x8 | x8 | B,2 E2 E>[B,FA] [B,EG]>[B,FA] | x8 | %14
 z2 E2 E>[B,FA] [B,EG]>[B,FA] | x8 | B,2 E2 E>[B,FA] [B,EG]>[B,FA] | x8 |[M:19/16] x19/2 | %19
[M:4/4] x8 |] %20

